assets/images/logo-saeloun.svg

<svg width="128" height="32" viewBox="0 0 128 32" fill="none" xmlns="http://www.w3.org/2000/svg"><path d="M47.6136 25.0694C48.7635 25.0694 49.7715 24.8603 50.6376 24.4422C51.5037 24.024 52.1832 23.4491 52.676 22.7174C53.1688 21.9856 53.4152 21.1419 53.4152 20.1862C53.4152 17.9611 52.0862 16.4229 49.428 15.5718L46.3592 14.6086C45.7619 14.4144 45.3064 14.1456 44.9928 13.8022C44.6941 13.4437 44.5448 13.0331 44.5448 12.5702C44.5448 11.9579 44.7763 11.4651 45.2392 11.0917C45.7171 10.7035 46.3443 10.5094 47.1208 10.5094C47.9869 10.5094 48.7485 10.7408 49.4056 11.2037C50.0627 11.6518 50.5555 12.2939 50.884 13.1301L53.3928 12.0102C52.9448 10.7558 52.1608 9.74775 51.0408 8.98615C49.9358 8.22455 48.6291 7.84375 47.1208 7.84375C46.0307 7.84375 45.06 8.05282 44.2088 8.47095C43.3725 8.87415 42.7155 9.44162 42.2376 10.1733C41.7747 10.9051 41.5432 11.7488 41.5432 12.7046C41.5432 13.7947 41.8717 14.743 42.5288 15.5494C43.1859 16.3408 44.164 16.9456 45.4632 17.3637L48.6664 18.3942C49.2488 18.5883 49.6819 18.8422 49.9656 19.1558C50.2643 19.4694 50.4136 19.8726 50.4136 20.3654C50.4136 20.9776 50.1672 21.4704 49.6744 21.8438C49.1966 22.2171 48.5619 22.4038 47.7704 22.4038C46.8147 22.4038 45.956 22.135 45.1944 21.5974C44.4328 21.0448 43.8504 20.2907 43.4472 19.335L40.916 20.4326C41.2147 21.3584 41.6851 22.1723 42.3272 22.8742C42.9843 23.5611 43.7608 24.0987 44.6568 24.487C45.5677 24.8752 46.5533 25.0694 47.6136 25.0694Z" fill="#303A4B"></path><path d="M59.4986 25.0694C61.0815 25.0694 62.3508 24.5467 63.3066 23.5014V24.8006H66.0842V16.6918C66.0842 15.8406 65.8676 15.0864 65.4346 14.4294C65.0015 13.7723 64.4042 13.2646 63.6426 12.9062C62.8959 12.5328 62.0223 12.3461 61.0218 12.3461C59.7972 12.3461 58.7071 12.6373 57.7514 13.2198C56.7956 13.8022 56.1386 14.5712 55.7802 15.527L58.177 16.6918C58.401 16.1392 58.7519 15.6987 59.2298 15.3702C59.7076 15.0267 60.2676 14.8549 60.9098 14.8549C61.5818 14.8549 62.1194 15.0342 62.5226 15.3926C62.9407 15.736 63.1498 16.1691 63.1498 16.6918V17.095L59.521 17.6774C58.0874 17.9163 57.0271 18.3718 56.3402 19.0438C55.6532 19.7158 55.3098 20.5595 55.3098 21.575C55.3098 22.6502 55.6906 23.5014 56.4522 24.1286C57.2138 24.7558 58.2292 25.0694 59.4986 25.0694ZM58.3562 21.463C58.3562 20.6117 58.9311 20.0742 60.081 19.8502L63.1498 19.335V19.8278C63.1498 20.664 62.8586 21.3734 62.2762 21.9558C61.7087 22.5382 60.962 22.8294 60.0362 22.8294C59.5434 22.8294 59.1402 22.7099 58.8266 22.471C58.513 22.2171 58.3562 21.8811 58.3562 21.463Z" fill="#303A4B"></path><path d="M74.5755 25.0694C75.815 25.0694 76.8977 24.7931 77.8235 24.2406C78.7643 23.6731 79.4214 22.9563 79.7947 22.0902L77.4203 20.9254C77.1515 21.3883 76.7782 21.7691 76.3003 22.0678C75.8374 22.3515 75.2699 22.4934 74.5979 22.4934C73.7169 22.4934 72.9777 22.2246 72.3803 21.687C71.783 21.1494 71.4395 20.4326 71.3499 19.5366H80.1307C80.1905 19.3723 80.2278 19.1856 80.2427 18.9766C80.2726 18.7526 80.2875 18.5286 80.2875 18.3046C80.2875 17.2144 80.0561 16.2214 79.5931 15.3254C79.1302 14.4294 78.4582 13.7126 77.5771 13.1749C76.6961 12.6224 75.6209 12.3461 74.3515 12.3461C73.2166 12.3461 72.1862 12.6224 71.2603 13.1749C70.3494 13.7275 69.6251 14.4816 69.0875 15.4374C68.5649 16.3782 68.3035 17.4608 68.3035 18.6854C68.3035 19.8651 68.5649 20.9403 69.0875 21.911C69.6102 22.8816 70.3419 23.6507 71.2827 24.2182C72.2235 24.7856 73.3211 25.0694 74.5755 25.0694ZM74.3515 14.7654C75.1281 14.7654 75.7702 15.0043 76.2779 15.4822C76.8006 15.9451 77.0918 16.5499 77.1515 17.2965H71.4171C71.5814 16.4901 71.9249 15.8704 72.4475 15.4374C72.9851 14.9894 73.6198 14.7654 74.3515 14.7654Z" fill="#303A4B"></path><path d="M82.5119 24.8006H85.4463V7.84375H82.5119V24.8006Z" fill="#303A4B"></path><path d="M94.1141 25.0694C95.2938 25.0694 96.369 24.8006 97.3397 24.263C98.3104 23.7104 99.0869 22.9563 99.6693 22.0006C100.252 21.0299 100.543 19.9323 100.543 18.7078C100.543 17.4832 100.252 16.3931 99.6693 15.4374C99.1018 14.4816 98.3328 13.7275 97.3621 13.1749C96.3914 12.6224 95.3088 12.3461 94.1141 12.3461C92.9045 12.3461 91.8144 12.6224 90.8437 13.1749C89.873 13.7275 89.0965 14.4816 88.5141 15.4374C87.9466 16.3931 87.6629 17.4832 87.6629 18.7078C87.6629 19.9323 87.9466 21.0224 88.5141 21.9782C89.0965 22.9339 89.873 23.688 90.8437 24.2406C91.8293 24.7931 92.9194 25.0694 94.1141 25.0694ZM94.1141 22.3814C93.457 22.3814 92.8672 22.2246 92.3445 21.911C91.8368 21.5974 91.4336 21.1643 91.1349 20.6118C90.8512 20.0443 90.7093 19.4096 90.7093 18.7078C90.7093 18.0059 90.8512 17.3787 91.1349 16.8262C91.4336 16.2736 91.8368 15.8406 92.3445 15.527C92.8672 15.1984 93.457 15.0342 94.1141 15.0342C94.7712 15.0342 95.3461 15.1984 95.8389 15.527C96.3466 15.8406 96.7424 16.2736 97.0261 16.8262C97.3248 17.3787 97.4741 18.0059 97.4741 18.7078C97.4741 19.4096 97.3248 20.0443 97.0261 20.6118C96.7424 21.1643 96.3466 21.5974 95.8389 21.911C95.3461 22.2246 94.7712 22.3814 94.1141 22.3814Z" fill="#303A4B"></path><path d="M107.114 25.0694C107.875 25.0694 108.547 24.9275 109.13 24.6438C109.727 24.3451 110.198 23.912 110.541 23.3446V24.8006H113.319V12.615H110.384V19.7606C110.384 20.5669 110.153 21.2091 109.69 21.687C109.227 22.1499 108.637 22.3814 107.92 22.3814C107.188 22.3814 106.591 22.1499 106.128 21.687C105.68 21.224 105.456 20.6043 105.456 19.8278V12.615H102.522V20.0742C102.522 21.5675 102.925 22.7771 103.731 23.703C104.553 24.6139 105.68 25.0694 107.114 25.0694Z" fill="#303A4B"></path><path d="M116.046 24.8006H118.981V17.655C118.981 16.8635 119.205 16.2288 119.653 15.751C120.116 15.2731 120.713 15.0342 121.445 15.0342C122.176 15.0342 122.766 15.2731 123.214 15.751C123.677 16.2139 123.909 16.8486 123.909 17.655V24.8006H126.843V16.9606C126.843 16.0496 126.649 15.2507 126.261 14.5637C125.872 13.8619 125.327 13.3168 124.626 12.9286C123.939 12.5403 123.147 12.3461 122.251 12.3461C121.49 12.3461 120.803 12.4955 120.19 12.7942C119.593 13.0928 119.13 13.5333 118.802 14.1158V12.615H116.046V24.8006Z" fill="#303A4B"></path><path fill-rule="evenodd" clip-rule="evenodd" d="M16 32C7.16344 32 0 24.8366 0 16C0 7.16344 7.16344 0 16 0C24.8366 0 32 7.16344 32 16C32 24.8366 24.8366 32 16 32ZM23 26.5764V5.42382H20.1541V13.6617H18.8V5.75618H16V19.3418C13.6279 17.7991 12.1628 15.307 12.1628 10.6076V7.59334H9.16281V10.6551C9.16281 15.4257 7.79072 18.2975 5.00002 20.0064L6.6977 22.2374C8.51165 21.1694 10.1628 18.9858 10.6744 17.0159C11.1628 18.9383 13.0233 20.9083 14.2558 21.739L16 19.3419V25.6268H18.8V16.1307H20.1541V26.5764H23ZM16 19.3419V19.3418C16 19.3418 16 19.3418 16 19.3418L16 19.3419Z" fill="#303A4B"></path></svg>

<?xml version="1.0" encoding="UTF-8"?>
<svg id="Layer_1" data-name="Layer 1" xmlns="http://www.w3.org/2000/svg" viewBox="0 0 126.84 32">
  <defs>
    <style>
      .cls-1, .cls-2 {
        fill: #020202;
      }

      .cls-2 {
        fill-rule: evenodd;
      }
    </style>
  </defs>
  <path class="cls-1" d="M47.61,25.07c1.15,0,2.16-.21,3.02-.63.87-.42,1.55-.99,2.04-1.72.49-.73.74-1.58.74-2.53,0-2.23-1.33-3.76-3.99-4.61l-3.07-.96c-.6-.19-1.05-.46-1.37-.81-.3-.36-.45-.77-.45-1.23,0-.61.23-1.11.69-1.48.48-.39,1.11-.58,1.88-.58.87,0,1.63.23,2.28.69.66.45,1.15,1.09,1.48,1.93l2.51-1.12c-.45-1.25-1.23-2.26-2.35-3.02-1.1-.76-2.41-1.14-3.92-1.14-1.09,0-2.06.21-2.91.63-.84.4-1.49.97-1.97,1.7-.46.73-.69,1.58-.69,2.53,0,1.09.33,2.04.99,2.84.66.79,1.64,1.4,2.93,1.81l3.2,1.03c.58.19,1.02.45,1.3.76.3.31.45.72.45,1.21,0,.61-.25,1.1-.74,1.48-.48.37-1.11.56-1.9.56-.96,0-1.81-.27-2.58-.81-.76-.55-1.34-1.31-1.75-2.26l-2.53,1.1c.3.93.77,1.74,1.41,2.44.66.69,1.43,1.22,2.33,1.61.91.39,1.9.58,2.96.58Z"/>
  <path class="cls-1" d="M59.5,25.07c1.58,0,2.85-.52,3.81-1.57v1.3h2.78v-8.11c0-.85-.22-1.61-.65-2.26-.43-.66-1.03-1.16-1.79-1.52-.75-.37-1.62-.56-2.62-.56-1.22,0-2.31.29-3.27.87-.96.58-1.61,1.35-1.97,2.31l2.4,1.16c.22-.55.57-.99,1.05-1.32.48-.34,1.04-.52,1.68-.52s1.21.18,1.61.54c.42.34.63.78.63,1.3v.4l-3.63.58c-1.43.24-2.49.69-3.18,1.37-.69.67-1.03,1.52-1.03,2.53,0,1.08.38,1.93,1.14,2.55.76.63,1.78.94,3.05.94ZM58.36,21.46c0-.85.57-1.39,1.72-1.61l3.07-.52v.49c0,.84-.29,1.55-.87,2.13-.57.58-1.31.87-2.24.87-.49,0-.9-.12-1.21-.36-.31-.25-.47-.59-.47-1.01Z"/>
  <path class="cls-1" d="M74.58,25.07c1.24,0,2.32-.28,3.25-.83.94-.57,1.6-1.28,1.97-2.15l-2.37-1.16c-.27.46-.64.84-1.12,1.14-.46.28-1.03.43-1.7.43-.88,0-1.62-.27-2.22-.81-.6-.54-.94-1.25-1.03-2.15h8.78c.06-.16.1-.35.11-.56.03-.22.04-.45.04-.67,0-1.09-.23-2.08-.69-2.98-.46-.9-1.13-1.61-2.02-2.15-.88-.55-1.96-.83-3.23-.83-1.13,0-2.17.28-3.09.83-.91.55-1.64,1.31-2.17,2.26-.52.94-.78,2.02-.78,3.25s.26,2.25.78,3.23c.52.97,1.25,1.74,2.2,2.31.94.57,2.04.85,3.29.85ZM74.35,14.77c.78,0,1.42.24,1.93.72.52.46.81,1.07.87,1.81h-5.73c.16-.81.51-1.43,1.03-1.86.54-.45,1.17-.67,1.9-.67Z"/>
  <path class="cls-1" d="M82.51,24.8h2.93V7.84h-2.93v16.96Z"/>
  <path class="cls-1" d="M94.11,25.07c1.18,0,2.25-.27,3.23-.81.97-.55,1.75-1.31,2.33-2.26.58-.97.87-2.07.87-3.29s-.29-2.31-.87-3.27c-.57-.96-1.34-1.71-2.31-2.26-.97-.55-2.05-.83-3.25-.83s-2.3.28-3.27.83c-.97.55-1.75,1.31-2.33,2.26-.57.96-.85,2.05-.85,3.27s.28,2.31.85,3.27c.58.96,1.36,1.71,2.33,2.26.99.55,2.08.83,3.27.83ZM94.11,22.38c-.66,0-1.25-.16-1.77-.47-.51-.31-.91-.75-1.21-1.3-.28-.57-.43-1.2-.43-1.9s.14-1.33.43-1.88c.3-.55.7-.99,1.21-1.3.52-.33,1.11-.49,1.77-.49s1.23.16,1.72.49c.51.31.9.75,1.19,1.3.3.55.45,1.18.45,1.88s-.15,1.34-.45,1.9c-.28.55-.68.99-1.19,1.3-.49.31-1.07.47-1.72.47Z"/>
  <path class="cls-1" d="M107.11,25.07c.76,0,1.43-.14,2.02-.43.6-.3,1.07-.73,1.41-1.3v1.46h2.78v-12.19h-2.93v7.15c0,.81-.23,1.45-.69,1.93-.46.46-1.05.69-1.77.69s-1.33-.23-1.79-.69c-.45-.46-.67-1.08-.67-1.86v-7.21h-2.93v7.46c0,1.49.4,2.7,1.21,3.63.82.91,1.95,1.37,3.38,1.37Z"/>
  <path class="cls-1" d="M116.05,24.8h2.94v-7.15c0-.79.22-1.43.67-1.9.46-.48,1.06-.72,1.79-.72s1.32.24,1.77.72c.46.46.69,1.1.69,1.9v7.15h2.93v-7.84c0-.91-.19-1.71-.58-2.4-.39-.7-.93-1.25-1.64-1.64-.69-.39-1.48-.58-2.38-.58-.76,0-1.45.15-2.06.45-.6.3-1.06.74-1.39,1.32v-1.5h-2.76v12.19Z"/>
  <path class="cls-2" d="M16,32C7.16,32,0,24.84,0,16S7.16,0,16,0s16,7.16,16,16-7.16,16-16,16ZM23,26.58V5.42h-2.85v8.24h-1.35v-7.91h-2.8v13.59c-2.37-1.54-3.84-4.03-3.84-8.73v-3.01h-3v3.06c0,4.77-1.37,7.64-4.16,9.35l1.7,2.23c1.81-1.07,3.47-3.25,3.98-5.22.49,1.92,2.35,3.89,3.58,4.72l1.74-2.4v6.28h2.8v-9.5h1.35v10.45h2.85ZM16,19.34h0s0,0,0,0Z"/>
</svg>
